X: 8764
T: Cuckoo
R: waltz
M: 3/4
K: Gmajor
B2|G2z2B2|G2z2B2|d2dBGB|A4c2|F2z2A2|D2z2A2|c2cAFA|G4B2|G2z2B2|G2z2B2|
d2dBGB|A4c2|F2z2A2|D2z2A2|c2cAFA|G6|B6-|B6-|B2 ^A2B2|
c2^c2e2|d6-|d6|B6-|B6|A6-|A6-|A2 ^G2A2|d2c2A2|B6-|B6|G6-|G6|
B6-|B6-|B2^A2B2|c2^c2e2|d6-|d6|B6-|B6|A6-|A6-|A2 ^G2A2|d2c2A2|
G6-|G6-|G4z2|z2z2B2|G2z2B2|G2z2B2|d2 dBGB|A4c2|F2z2A2|D2z2A2|
c2cAFA|G4B2|G2z2B2|G2z2B2|d2dBGB|A4c2|F2z2A2|D2z2A2|c2cAFA|G2z2B2|
G2z2B2|G2z2B2|G2z2d2|G2z2z2|

